static/logos/microsoft-wordmark-color.svg

<svg width="100" height="22" viewBox="0 0 100 22" fill="none" xmlns="http://www.w3.org/2000/svg">
<g clip-path="url(#clip0_1_2001)">
<path d="M41.5353 4.26034V17.0414H39.3163V7.01182H39.2867L35.3222 17.0414H33.843L29.7897 7.01182H29.7601V17.0414H27.7188V4.26034H30.914L34.5826 13.7278H34.6418L38.5175 4.26034H41.5353ZM43.3696 5.23668C43.3696 4.88165 43.4879 4.58579 43.7542 4.3491C44.0205 4.11242 44.3163 3.99407 44.6714 3.99407C45.056 3.99407 45.3814 4.11242 45.6181 4.3491C45.8548 4.58579 46.0027 4.88165 46.0027 5.23668C46.0027 5.59171 45.8844 5.88756 45.6181 6.12425C45.3518 6.36094 45.056 6.47928 44.6714 6.47928C44.2867 6.47928 43.9909 6.36094 43.7542 6.12425C43.5175 5.85798 43.3696 5.56212 43.3696 5.23668ZM45.766 7.86981V17.0414H43.6063V7.86981H45.766ZM52.3045 15.4733C52.6299 15.4733 52.985 15.4142 53.3696 15.2367C53.7542 15.0887 54.1092 14.8816 54.4347 14.645V16.6568C54.0796 16.8639 53.695 17.0118 53.2512 17.1006C52.8074 17.1893 52.3341 17.2485 51.8015 17.2485C50.4406 17.2485 49.3459 16.8343 48.5175 15.9763C47.6595 15.1183 47.2453 14.0237 47.2453 12.7219C47.2453 11.2426 47.6891 10.0296 48.5471 9.08283C49.4051 8.13608 50.6181 7.66271 52.2157 7.66271C52.6299 7.66271 53.0441 7.72188 53.4288 7.81064C53.843 7.8994 54.1684 8.04733 54.4051 8.16567V10.2366C54.0796 9.99996 53.7246 9.79289 53.3992 9.67455C53.0441 9.5562 52.6891 9.46744 52.3341 9.46744C51.4761 9.46744 50.7956 9.73369 50.2631 10.2958C49.7305 10.8579 49.4938 11.5976 49.4938 12.5444C49.4938 13.4615 49.7601 14.2012 50.2631 14.7041C50.766 15.2071 51.4465 15.4733 52.3045 15.4733ZM60.5589 7.72188C60.7364 7.72188 60.8844 7.72188 61.0323 7.75147C61.1802 7.78105 61.2986 7.81064 61.3873 7.84023V10.0296C61.269 9.94082 61.1211 9.85203 60.8844 9.79286C60.6477 9.73369 60.411 9.67455 60.0856 9.67455C59.553 9.67455 59.1092 9.91123 58.7542 10.355C58.3992 10.7988 58.1921 11.4793 58.1921 12.426V17.0414H56.0323V7.86981H58.1921V9.31952H58.2217C58.4288 8.81656 58.7246 8.43194 59.1092 8.13608C59.5234 7.86981 59.9968 7.72188 60.5589 7.72188ZM61.5057 12.6035C61.5057 11.0946 61.9495 9.88165 62.7779 8.99407C63.6358 8.1065 64.8193 7.66271 66.3282 7.66271C67.7483 7.66271 68.8725 8.07691 69.6714 8.9349C70.4702 9.79289 70.8844 10.9467 70.8844 12.3964C70.8844 13.8757 70.4406 15.0592 69.6122 15.9467C68.7542 16.8343 67.6004 17.2781 66.1211 17.2781C64.7009 17.2781 63.5767 16.8639 62.7483 16.0355C61.9199 15.1775 61.5057 14.0236 61.5057 12.6035ZM63.7542 12.5148C63.7542 13.4615 63.9613 14.2012 64.4051 14.7041C64.8489 15.2071 65.4702 15.4733 66.269 15.4733C67.0382 15.4733 67.6595 15.2367 68.0737 14.7041C68.4879 14.2012 68.695 13.4615 68.695 12.4556C68.695 11.4792 68.4879 10.7396 68.0737 10.2071C67.6595 9.70413 67.0382 9.43786 66.2986 9.43786C65.4998 9.43786 64.908 9.7041 64.4643 10.2366C63.9613 10.7988 63.7542 11.5384 63.7542 12.5148ZM74.1092 10.2958C74.1092 10.5917 74.198 10.8579 74.4051 11.0355C74.6122 11.213 75.0264 11.4201 75.7069 11.6864C76.5648 12.0414 77.1861 12.426 77.5116 12.8402C77.8666 13.284 78.0441 13.787 78.0441 14.4083C78.0441 15.2663 77.7187 15.9467 77.0382 16.4793C76.3873 17.0118 75.4702 17.2485 74.3459 17.2485C73.9613 17.2485 73.5471 17.1893 73.0737 17.1006C72.6004 17.0118 72.2157 16.8935 71.8903 16.7455V14.6154C72.2749 14.8816 72.7187 15.1183 73.1625 15.2662C73.6063 15.4142 74.0205 15.5029 74.4051 15.5029C74.8785 15.5029 75.2631 15.4438 75.4702 15.2958C75.7069 15.1479 75.8252 14.9408 75.8252 14.6154C75.8252 14.3195 75.7069 14.0828 75.4702 13.8461C75.2335 13.639 74.7601 13.4024 74.1092 13.1361C73.3104 12.8106 72.7483 12.426 72.4228 12.0118C72.0974 11.5976 71.9199 11.0651 71.9199 10.4142C71.9199 9.58579 72.2453 8.90528 72.8962 8.37274C73.5471 7.8402 74.4051 7.57395 75.4406 7.57395C75.766 7.57395 76.1211 7.60354 76.5057 7.6923C76.8903 7.78105 77.2453 7.86981 77.5116 7.95857V10.0592C77.2157 9.88165 76.8903 9.7041 76.5057 9.55617C76.1211 9.40824 75.7364 9.3491 75.3814 9.3491C74.9672 9.3491 74.6418 9.43786 74.4347 9.58579C74.2276 9.79289 74.1092 9.99996 74.1092 10.2958ZM78.9613 12.6035C78.9613 11.0946 79.4051 9.88165 80.2335 8.99407C81.0915 8.1065 82.2749 7.66271 83.7838 7.66271C85.2039 7.66271 86.3282 8.07691 87.127 8.9349C87.9258 9.79289 88.34 10.9467 88.34 12.3964C88.34 13.8757 87.8962 15.0592 87.0678 15.9467C86.2098 16.8343 85.056 17.2781 83.5767 17.2781C82.1566 17.2781 81.0323 16.8639 80.2039 16.0355C79.4051 15.1775 78.9613 14.0236 78.9613 12.6035ZM81.2098 12.5148C81.2098 13.4615 81.4169 14.2012 81.8607 14.7041C82.3045 15.2071 82.9258 15.4733 83.7246 15.4733C84.4938 15.4733 85.1151 15.2367 85.5293 14.7041C85.9435 14.2012 86.1506 13.4615 86.1506 12.4556C86.1506 11.4792 85.9435 10.7396 85.5293 10.2071C85.1151 9.70413 84.4938 9.43786 83.7542 9.43786C82.9554 9.43786 82.3637 9.7041 81.9199 10.2366C81.4465 10.7988 81.2098 11.5384 81.2098 12.5148ZM95.5293 9.64493H92.3045V17.0414H90.1151V9.64493H88.5767V7.86981H90.1151V6.59762C90.1151 5.65088 90.4406 4.85206 91.0619 4.23076C91.6832 3.60946 92.482 3.3136 93.4583 3.3136C93.7246 3.3136 93.9613 3.34318 94.1684 3.34318C94.3755 3.34318 94.553 3.40236 94.7009 3.46153V5.32543C94.6418 5.29585 94.4938 5.23668 94.3163 5.1775C94.1388 5.11833 93.9317 5.08875 93.695 5.08875C93.2512 5.08875 92.8962 5.23668 92.6595 5.50295C92.4228 5.76922 92.3045 6.21301 92.3045 6.74555V7.84023H95.5293V5.76922L97.6891 5.11833V7.84023H99.8785V9.61537H97.6891V13.9053C97.6891 14.4674 97.8075 14.8521 97.985 15.0887C98.1921 15.3254 98.5175 15.4438 98.9613 15.4438C99.0796 15.4438 99.2276 15.4142 99.4051 15.355C99.5826 15.2958 99.7305 15.2367 99.8489 15.1479V16.9231C99.7009 17.0118 99.4938 17.071 99.1684 17.1302C98.843 17.1893 98.5471 17.2189 98.2217 17.2189C97.3045 17.2189 96.624 16.9822 96.1802 16.5088C95.7364 16.0355 95.4998 15.2958 95.4998 14.3195L95.5293 9.64493Z" fill="#737373"/>
<path d="M10.1183 0H0V10.1183H10.1183V0Z" fill="#F25022"/>
<path d="M21.298 0H11.1797V10.1183H21.298V0Z" fill="#7FBA00"/>
<path d="M10.1183 11.1834H0V21.3018H10.1183V11.1834Z" fill="#00A4EF"/>
<path d="M21.298 11.1834H11.1797V21.3018H21.298V11.1834Z" fill="#FFB900"/>
</g>
<defs>
<clipPath id="clip0_1_2001">
<rect width="100" height="21.3018" fill="white"/>
</clipPath>
</defs>
</svg>

<svg xmlns="http://www.w3.org/2000/svg" width="290.909" height="64" fill="none" viewBox="0 0 100 22"><g clip-path="url(#a)"><path fill="#737373" d="M41.535 4.26v12.781h-2.219V7.011h-.03l-3.964 10.03h-1.479L29.79 7.011h-.03v10.03H27.72V4.261h3.195l3.669 9.467h.059l3.875-9.468h3.018Zm1.835.977c0-.355.118-.651.384-.888.267-.237.562-.355.917-.355.385 0 .71.118.947.355s.385.533.385.888-.119.65-.385.887a1.344 1.344 0 0 1-.947.355c-.384 0-.68-.118-.917-.355-.236-.266-.384-.562-.384-.887Zm2.396 2.633v9.171h-2.16V7.87h2.16Zm6.538 7.603c.326 0 .681-.059 1.066-.236.384-.148.74-.355 1.065-.592v2.012c-.355.207-.74.355-1.184.444a7.284 7.284 0 0 1-1.45.148c-1.36 0-2.455-.415-3.284-1.273-.858-.858-1.272-1.952-1.272-3.254 0-1.48.444-2.692 1.302-3.64.858-.946 2.071-1.42 3.669-1.42.414 0 .828.06 1.213.149.414.088.74.236.976.355v2.07a4.3 4.3 0 0 0-1.006-.561c-.355-.119-.71-.208-1.065-.208-.858 0-1.538.267-2.07.829-.534.562-.77 1.302-.77 2.248 0 .917.266 1.657.77 2.16.502.503 1.182.77 2.04.77Zm8.255-7.751c.177 0 .325 0 .473.03.148.029.267.059.355.088v2.19a1.327 1.327 0 0 0-.503-.237 3.036 3.036 0 0 0-.798-.118c-.533 0-.977.236-1.332.68-.355.444-.562 1.124-.562 2.071v4.615h-2.16V7.87h2.16v1.45h.03c.207-.503.503-.888.887-1.184a2.607 2.607 0 0 1 1.45-.414Zm.947 4.881c0-1.508.444-2.721 1.272-3.609.858-.887 2.041-1.331 3.55-1.331 1.42 0 2.544.414 3.343 1.272.8.858 1.213 2.012 1.213 3.461 0 1.48-.443 2.663-1.272 3.55-.858.888-2.012 1.332-3.49 1.332-1.421 0-2.545-.414-3.374-1.242-.828-.859-1.242-2.012-1.242-3.433Zm2.248-.088c0 .946.207 1.686.651 2.19.444.502 1.065.768 1.864.768.77 0 1.39-.236 1.805-.769.414-.503.621-1.243.621-2.248 0-.977-.207-1.716-.621-2.249-.415-.503-1.036-.77-1.775-.77-.8 0-1.391.267-1.835.8-.503.562-.71 1.301-.71 2.278Zm10.355-2.22c0 .297.089.563.296.74.207.178.621.385 1.302.651.858.355 1.48.74 1.805 1.154.355.444.532.947.532 1.568 0 .858-.325 1.539-1.006 2.071-.65.533-1.568.77-2.692.77-.385 0-.799-.06-1.272-.148a5.118 5.118 0 0 1-1.184-.355v-2.13a5.17 5.17 0 0 0 1.272.65c.444.148.858.237 1.243.237.474 0 .858-.06 1.065-.207.237-.148.355-.355.355-.68 0-.296-.118-.533-.355-.77-.236-.207-.71-.444-1.36-.71-.8-.325-1.362-.71-1.687-1.124-.326-.414-.503-.947-.503-1.598 0-.828.325-1.509.976-2.041.651-.533 1.51-.799 2.545-.799.325 0 .68.03 1.065.118.384.089.74.178 1.006.267v2.1a6.372 6.372 0 0 0-1.006-.503 3.131 3.131 0 0 0-1.125-.207c-.414 0-.74.089-.946.237-.207.207-.326.414-.326.71Zm4.852 2.309c0-1.51.444-2.722 1.273-3.61.858-.887 2.04-1.331 3.55-1.331 1.42 0 2.544.414 3.343 1.272.799.858 1.213 2.012 1.213 3.461 0 1.48-.444 2.663-1.272 3.55-.858.888-2.012 1.332-3.491 1.332-1.42 0-2.545-.414-3.373-1.242-.799-.859-1.243-2.012-1.243-3.433Zm2.249-.09c0 .947.207 1.687.65 2.19.445.503 1.066.77 1.865.77.769 0 1.39-.237 1.804-.77.415-.503.622-1.243.622-2.248 0-.977-.207-1.716-.622-2.249-.414-.503-1.035-.77-1.775-.77-.799 0-1.39.267-1.834.8-.474.562-.71 1.301-.71 2.278Zm14.32-2.87h-3.225v7.397h-2.19V9.645h-1.538V7.87h1.538V6.598c0-.947.326-1.746.947-2.367.621-.622 1.42-.917 2.396-.917.267 0 .503.03.71.03.207 0 .385.058.533.118v1.863a3.622 3.622 0 0 0-.385-.147 1.967 1.967 0 0 0-.621-.09c-.444 0-.799.149-1.035.415-.237.266-.355.71-.355 1.243V7.84h3.224V5.77l2.16-.652V7.84h2.19v1.775h-2.19v4.29c0 .562.119.947.296 1.184.207.236.532.355.976.355.119 0 .267-.03.444-.089.178-.06.326-.118.444-.207v1.775c-.148.089-.355.148-.68.207-.326.06-.622.089-.947.089-.917 0-1.598-.237-2.042-.71-.444-.474-.68-1.213-.68-2.19l.03-4.674Z"/><path fill="#F25022" d="M10.118 0H0v10.118h10.118V0Z"/><path fill="#7FBA00" d="M21.298 0H11.18v10.118h10.118V0Z"/><path fill="#00A4EF" d="M10.118 11.183H0v10.119h10.118V11.183Z"/><path fill="#FFB900" d="M21.298 11.183H11.18v10.119h10.118V11.183Z"/></g><defs><clipPath id="a"><path fill="#fff" d="M0 0h100v21.302H0z"/></clipPath></defs></svg>
